icons/currency-euro-outline.svg

<svg xmlns="http://www.w3.org/2000/svg" width="24" height="24" viewBox="0 0 24 24">
  <path d="M12,1 C18.0751322,1 23,5.92486775 23,12 C23,18.0751322 18.0751322,23 12,23 C5.92486775,23 1,18.0751322 1,12 C1,5.92486775 5.92486775,1 12,1 Z M12,3 C7.02943725,3 3,7.02943725 3,12 C3,16.9705627 7.02943725,21 12,21 C16.9705627,21 21,16.9705627 21,12 C21,7.02943725 16.9705627,3 12,3 Z M15.3944292,8.05278551 C15.641419,8.54676376 15.4411952,9.147437 14.947217,9.39442674 C14.4885229,9.62377436 13.9378316,9.46751443 13.6637479,9.0485148 L13.6055758,8.94721449 C12.9740979,7.68426199 11.025903,7.68426199 10.3944272,8.9472136 C10.3069207,9.12222661 10.228326,9.30709448 10.1586432,9.49980992 L12,9.5 C12.5522847,9.5 13,9.94771525 13,10.5 C13,11.0128358 12.6139598,11.4355072 12.1166211,11.4932723 L12,11.5 L9.76489749,11.5005604 C9.74501417,11.8327411 9.74503419,12.1682682 9.76495756,12.5004422 L12,12.5 C12.5522847,12.5 13,12.9477153 13,13.5 C13,14.0128358 12.6139598,14.4355072 12.1166211,14.4932723 L12,14.5 L10.159,14.5011766 C10.2285943,14.6935364 10.30707,14.878072 10.3944272,15.0527864 C11.002515,16.268962 12.8315934,16.3140056 13.5301268,15.1879162 L13.6055758,15.0527855 C13.8525655,14.5588073 14.4532387,14.3585835 14.947217,14.6055733 C15.4411952,14.852563 15.641419,15.4532362 15.3944292,15.9472145 C14.0259021,18.684262 9.974097,18.684262 8.60557281,15.9472136 C8.38196844,15.5000049 8.20219341,15.01246 8.06624771,14.5003918 L8,14.5 C7.44771525,14.5 7,14.0522847 7,13.5 C7,13.0288047 7.32589502,12.6337262 7.76458068,12.527869 C7.7454916,12.176951 7.7454916,11.823049 7.76352521,11.4712336 C7.32589502,11.3662738 7,10.9711953 7,10.5 C7,9.98716416 7.38604019,9.56449284 7.88337887,9.50672773 L8,9.5 L8.06598015,9.50061623 C8.2019575,8.98817984 8.38182172,8.50028858 8.60557281,8.0527864 C9.974097,5.31573801 14.0259021,5.31573801 15.3944292,8.05278551 Z"/>
</svg>

<svg xmlns="http://www.w3.org/2000/svg" viewBox="0 0 24 24">
  <path d="M12 1a11 11 0 1 1 0 22 11 11 0 0 1 0-22zm0 2a9 9 0 1 0 0 18 9 9 0 0 0 0-18zm3.4 5.05a1 1 0 0 1-1.74 1l-.05-.1c-.64-1.27-2.58-1.27-3.22 0l-.23.55H12a1 1 0 0 1 .12 2H9.76v1H12a1 1 0 0 1 .12 2h-1.96c.07.2.15.38.23.55.61 1.22 2.44 1.26 3.14.14l.08-.14a1 1 0 1 1 1.78.9 3.83 3.83 0 0 1-6.78 0 7.6 7.6 0 0 1-.54-1.45H8a1 1 0 0 1-.24-1.97v-1.06a1 1 0 0 1 .12-1.96L8 9.5h.07c.13-.51.31-1 .54-1.45a3.83 3.83 0 0 1 6.78 0z"/>
</svg>
